X: 4380
M: 2/4
L: 1/16
K: G
|:\
g4 dcBc | d2d2 B4 | e2e2 ^c2c2 | d^cdc d^def |\
g4 dcBc | d2d2 B4 | edcB A2(dc) | B2G2G2z2 H:|


